X:1
T:[ID 7-71]
T:[ID 7-71]
T:Bezeichnung standardisiert: Menuett Menuet ex G. #.
T:Urheber unbekannt Datum in der hier transkribierten schriftlichen Quelle: 1776 - 1791
C:Urheber unbekannt
C:Datum in der hier transkribierten schriftlichen Quelle: 1776 - 1791
L:1/8
M:3/4
K:G
V:1 treble 
V:1
 D2 | G2 GBAc | B2 B2 (3efg | d2 c2 B2 | A4 B2 | c2 ecAc | B2 dBGB | A2 G2 F2 | G4 :: G2 | %10
 B2 Bdce | Td4 c2 | B2 (3Bcd (3cde | Td4 (3efg | dB G2 (3efg | dB G2 (3efg | d2 c2 B2 | A4 D2 | %18
 G2 GBAc | B2 B2 (3efg | d2 c2 B2 | A4 B2 | c2 ecAc | B2 dBGB | A2 G2 F2 | G4 :| %26

